Desktop/project_createx/public/images/decor/lines4.svg

<svg xmlns="http://www.w3.org/2000/svg" width="891" height="889" fill="none"><g stroke="#00F0B5" opacity=".4"><path d="M242.3 250.434c-5.309 7.252-10.902 14.622-16.582 22.105-18.342 24.165-37.586 49.518-51.04 75.962-17.607 34.608-25.242 70.981-7.942 108.864 16.794 36.774 50.738 50.61 89.542 60.017 9.698 2.351 19.689 4.423 29.785 6.509l.72.149c9.859 2.037 19.812 4.093 29.671 6.439 20.195 4.806 40.019 10.834 57.874 20.423 19.572 10.512 37.547 25.747 54.744 42.386 8.6 8.321 17.011 16.998 25.332 25.616l1.64 1.698c7.765 8.045 15.457 16.014 23.165 23.578 33.036 32.416 66.181 57.189 106.127 48.513 42.637-9.259 76.932-41.408 99.597-82.736 22.664-41.324 33.662-91.763 29.744-137.479-3.378-39.428-29.261-67.515-61.24-93.593-9.652-7.871-19.834-15.54-30.111-23.281-6.758-5.09-13.556-10.21-20.272-15.439-16.909-13.167-33.251-26.991-46.922-42.634-13.109-15.001-24.123-32.654-34.43-50.848-4.086-7.212-8.057-14.503-12.004-21.748-6.022-11.054-11.987-22.004-18.215-32.413-20.614-34.451-43.927-62.64-81.016-68.188-38.606-5.775-69.656 10.712-96.572 36.193-21.941 20.772-41.083 47.467-59.293 72.865-4.142 5.776-8.235 11.485-12.302 17.042Z"/><path d="M283.031 291.729c-4.182 5.714-8.587 11.518-13.06 17.411-14.441 19.025-29.584 38.976-40.172 59.787-13.856 27.233-19.854 55.836-6.252 85.623 13.201 28.906 39.882 39.789 70.428 47.194 7.634 1.851 15.498 3.482 23.448 5.124l.565.117c7.762 1.604 15.601 3.223 23.366 5.071 15.904 3.785 31.523 8.533 45.592 16.09 15.423 8.283 29.584 20.287 43.127 33.39 6.773 6.552 13.396 13.385 19.948 20.171l1.29 1.336c6.114 6.335 12.17 12.608 18.238 18.562 26.012 25.525 52.069 44.986 83.459 38.168 33.529-7.281 60.509-32.566 78.346-65.089 17.835-32.519 26.489-72.211 23.406-108.184-2.656-30.998-23.003-53.087-48.178-73.617-7.598-6.196-15.612-12.232-23.702-18.325-5.32-4.007-10.674-8.04-15.965-12.159-13.315-10.368-26.188-21.257-36.958-33.582-10.329-11.819-19.005-25.725-27.121-40.052-3.219-5.682-6.347-11.423-9.454-17.128-4.74-8.701-9.435-17.318-14.338-25.513-16.228-27.122-34.561-49.276-63.71-53.636-30.351-4.541-54.766 8.418-75.945 28.468-17.268 16.347-32.331 37.355-46.669 57.351-3.261 4.549-6.485 9.045-9.689 13.422Z"/><path d="M312.459 321.563c-3.368 4.601-6.915 9.275-10.516 14.019-11.622 15.311-23.802 31.359-32.32 48.1-11.144 21.904-15.961 44.893-5.029 68.83 10.604 23.221 32.036 31.971 56.617 37.93 6.142 1.489 12.47 2.801 18.868 4.123l.454.094c6.248 1.291 12.559 2.595 18.81 4.082 12.804 3.047 25.384 6.871 36.719 12.959 12.425 6.674 23.831 16.342 34.733 26.89 5.452 5.275 10.784 10.776 16.057 16.237l1.04 1.077c4.92 5.098 9.793 10.146 14.675 14.937 20.938 20.545 41.875 36.168 67.081 30.693 26.949-5.853 48.645-26.178 62.992-52.339 14.346-26.156 21.307-58.084 18.827-87.017-2.134-24.907-18.482-42.664-38.74-59.184-6.115-4.986-12.561-9.842-19.071-14.744-4.282-3.226-8.592-6.472-12.853-9.79-10.719-8.346-21.085-17.114-29.76-27.041-8.32-9.52-15.306-20.72-21.84-32.252-2.592-4.576-5.11-9.198-7.611-13.79-3.815-7.001-7.591-13.933-11.536-20.527-13.06-21.827-27.795-39.621-51.207-43.123-24.386-3.648-44.008 6.761-61.042 22.887-13.89 13.15-26.007 30.049-37.547 46.142a1355 1355 0 0 1-7.801 10.807Z"/></g></svg>

<svg width="891" height="889" viewBox="0 0 891 889" fill="none" xmlns="http://www.w3.org/2000/svg">
<g opacity="0.4">
<path d="M242.3 250.434C236.991 257.686 231.398 265.056 225.718 272.539C207.376 296.704 188.132 322.057 174.678 348.501C157.071 383.109 149.436 419.482 166.736 457.365C183.53 494.139 217.474 507.975 256.278 517.382C265.976 519.733 275.967 521.805 286.063 523.891L286.783 524.04C296.642 526.077 306.595 528.133 316.454 530.479C336.649 535.285 356.473 541.313 374.328 550.902C393.9 561.414 411.875 576.649 429.072 593.288C437.672 601.609 446.083 610.286 454.404 618.904C454.951 619.471 455.498 620.037 456.044 620.602C463.809 628.647 471.501 636.616 479.209 644.18C512.245 676.596 545.39 701.369 585.336 692.693C627.973 683.434 662.268 651.285 684.933 609.957C707.597 568.633 718.595 518.194 714.677 472.478C711.299 433.05 685.416 404.963 653.437 378.885C643.785 371.014 633.603 363.345 623.326 355.604C616.568 350.514 609.77 345.394 603.054 340.165C586.145 326.998 569.803 313.174 556.132 297.531C543.023 282.53 532.009 264.877 521.702 246.683C517.616 239.471 513.645 232.18 509.698 224.935C503.676 213.881 497.711 202.931 491.483 192.522C470.869 158.071 447.556 129.882 410.467 124.334C371.861 118.559 340.811 135.046 313.895 160.527C291.954 181.299 272.812 207.994 254.602 233.392C250.46 239.168 246.367 244.877 242.3 250.434Z" stroke="#00F0B5"/>
<path d="M283.031 291.729C278.849 297.443 274.444 303.247 269.971 309.14C255.53 328.165 240.387 348.116 229.799 368.927C215.943 396.16 209.945 424.763 223.547 454.55C236.748 483.456 263.429 494.339 293.975 501.744C301.609 503.595 309.473 505.226 317.423 506.868L317.988 506.985C325.75 508.589 333.589 510.208 341.354 512.056C357.258 515.841 372.877 520.589 386.946 528.146C402.369 536.429 416.53 548.433 430.073 561.536C436.846 568.088 443.469 574.921 450.021 581.707C450.451 582.153 450.881 582.598 451.311 583.043C457.425 589.378 463.481 595.651 469.549 601.605C495.561 627.13 521.618 646.591 553.008 639.773C586.537 632.492 613.517 607.207 631.354 574.684C649.189 542.165 657.843 502.473 654.76 466.5C652.104 435.502 631.757 413.413 606.582 392.883C598.984 386.687 590.97 380.651 582.88 374.558C577.56 370.551 572.206 366.518 566.915 362.399C553.6 352.031 540.727 341.142 529.957 328.817C519.628 316.998 510.952 303.092 502.836 288.765C499.617 283.083 496.489 277.342 493.382 271.637C488.642 262.936 483.947 254.319 479.044 246.124C462.816 219.002 444.483 196.848 415.334 192.488C384.983 187.947 360.568 200.906 339.389 220.956C322.121 237.303 307.058 258.311 292.72 278.307C289.459 282.856 286.235 287.352 283.031 291.729Z" stroke="#00F0B5"/>
<path d="M312.459 321.563C309.091 326.164 305.544 330.838 301.943 335.582C290.321 350.893 278.141 366.941 269.623 383.682C258.479 405.586 253.662 428.575 264.594 452.512C275.198 475.733 296.63 484.483 321.211 490.442C327.353 491.931 333.681 493.243 340.079 494.565L340.533 494.659C346.781 495.95 353.092 497.254 359.343 498.741C372.147 501.788 384.727 505.612 396.062 511.7C408.487 518.374 419.893 528.042 430.795 538.59C436.247 543.865 441.579 549.366 446.852 554.827C447.199 555.187 447.545 555.546 447.892 555.904C452.812 561.002 457.685 566.05 462.567 570.841C483.505 591.386 504.442 607.009 529.648 601.534C556.597 595.681 578.293 575.356 592.64 549.195C606.986 523.039 613.947 491.111 611.467 462.178C609.333 437.271 592.985 419.514 572.727 402.994C566.612 398.008 560.166 393.152 553.656 388.25C549.374 385.024 545.064 381.778 540.803 378.46C530.084 370.114 519.718 361.346 511.043 351.419C502.723 341.899 495.737 330.699 489.203 319.167C486.611 314.591 484.093 309.969 481.592 305.377C477.777 298.376 474.001 291.444 470.056 284.85C456.996 263.023 442.261 245.229 418.849 241.727C394.463 238.079 374.841 248.488 357.807 264.614C343.917 277.764 331.8 294.663 320.26 310.756C317.635 314.418 315.039 318.038 312.459 321.563Z" stroke="#00F0B5"/>
</g>
</svg>
